X:1065
T:Longford collector, The
M:C|
R:Reel
S:Michael Coleman
K:G
D|:~G2GA Bddg|eBB2 eBdB|~G2GA B2cB|AGAB GEDE|
|~G2GA Bddg|eBBB d2ef|gfga gedB|1 AcBA GEDE |2 AcBA GEE2 :|
|:gfga gedf|eB~B2 d2ef|gfga gedB|AcBA GEE2|
|gfga gedf|eB~B2 d2ef|gbaf gedB |1 AcBA GEE2:|2 AcBA GEDE:|
